src/public/img/landing/new/external-websites/ikea.svg

<svg width="103" height="20" viewBox="0 0 103 20" fill="none" xmlns="http://www.w3.org/2000/svg">
<path d="M1.45898 19.1218C2.11652 18.7963 2.07098 17.6672 2.07281 17.529C2.07281 17.2527 2.07281 3.56539 2.07281 3.00903C2.0813 2.80168 2.03974 2.59533 1.95162 2.40737C1.86349 2.21941 1.73139 2.05535 1.56645 1.92903H13.4422C13.4422 1.92903 12.9322 2.22176 12.9322 3.01994C12.9322 3.48903 12.9322 16.9963 12.9322 17.8308C12.9322 18.0381 13.0214 18.8236 13.546 19.1036L1.45898 19.1218Z" fill="black"/>
<path d="M30.0969 19.1217C29.4885 18.7072 29.514 17.8363 29.5104 17.6381C29.5104 17.4963 29.5104 14.9908 29.5104 12.0763C29.5104 12.0763 32.8272 17.2945 33.1368 18.0545C33.4775 18.889 33.0913 19.1217 33.0913 19.1217H46.752C46.752 19.1217 46.6136 19.0308 46.4078 18.8745C45.9412 18.5441 45.53 18.1422 45.1892 17.6836C44.7047 17.0363 39.7067 8.93447 39.7067 8.93447C39.7067 8.93447 43.4698 3.69447 44.0581 2.93447C44.3661 2.55198 44.726 2.21419 45.1273 1.93083C45.1273 1.93083 44.3022 1.93083 44.3022 1.93083H33.4265C33.4265 1.93083 34.0767 2.3872 33.503 3.21992C32.9292 4.05265 29.514 8.77265 29.514 8.77265C29.514 5.87629 29.514 3.21629 29.514 3.01083C29.5064 2.80229 29.5496 2.59503 29.6401 2.40689C29.7305 2.21874 29.8654 2.05537 30.0331 1.93083H18.4652C18.6297 2.05745 18.7614 2.22161 18.8492 2.40953C18.937 2.59746 18.9783 2.80366 18.9698 3.01083C18.9789 3.56719 18.9698 17.2545 18.9698 17.5308C18.9698 17.6781 19.0135 18.8036 18.356 19.1236L30.0969 19.1217Z" fill="black"/>
<path d="M49.1531 1.92903C49.3186 2.05507 49.4514 2.21898 49.5401 2.40693C49.6289 2.59489 49.6711 2.80139 49.6631 3.00903C49.6631 3.56539 49.6631 17.2527 49.6631 17.529C49.6631 17.6763 49.7069 18.8018 49.0493 19.1218H68.9703V13.2818C68.7945 13.4608 68.5844 13.6026 68.3525 13.6988C68.1206 13.795 67.8717 13.8436 67.6206 13.8418H59.8522V12.4708H65.4513C65.7901 12.4708 66.7263 12.5781 66.9667 12.8945V7.65085C66.7154 8.00176 65.77 8.08358 65.4586 8.08358H59.8486V6.71085C59.8486 6.71085 66.3456 6.71085 67.1507 6.71085C67.8331 6.72856 68.4834 7.00407 68.9703 7.48176V1.92903H49.1531Z" fill="black"/>
<path d="M87.4066 19.1219C87.4066 19.1219 87.9311 18.5346 87.7472 17.8237C87.5152 17.1054 87.2359 16.4033 86.9111 15.7219H81.802C81.802 15.7219 81.1609 17.0764 80.966 17.8237C80.7838 18.5346 81.3066 19.1219 81.3066 19.1219H70.9736C71.3779 18.7476 71.7019 18.2955 71.9262 17.7928C72.2905 16.9582 77.2084 3.85278 77.4033 3.38005C77.7676 2.47096 77.1647 1.93823 77.1647 1.93823H93.5994C93.4207 2.13232 93.3005 2.37277 93.2525 2.63198C93.2045 2.89119 93.2307 3.15866 93.328 3.40369C93.6359 4.33096 98.8852 17.3201 99.122 17.7928C99.3707 18.3191 99.7462 18.7758 100.215 19.1219H87.4066ZM85.7272 12.6019C85.7272 12.6019 84.4977 9.56914 84.4522 9.4546C84.3473 9.17088 84.2859 8.87298 84.2701 8.57096H84.2519C84.2419 8.87204 84.1866 9.16992 84.0879 9.4546C84.0406 9.56914 82.8129 12.6019 82.8129 12.6019H85.7272Z" fill="black"/>
<path d="M95.9031 3.57819C95.8958 3.00133 96.0606 2.43536 96.3764 1.9522C96.6922 1.46904 97.1448 1.09052 97.6766 0.864756C98.2085 0.638988 98.7955 0.576165 99.3632 0.684272C99.9309 0.79238 100.454 1.06654 100.865 1.47189C101.276 1.87725 101.557 2.39551 101.673 2.96079C101.788 3.52606 101.733 4.11284 101.513 4.64653C101.294 5.18022 100.92 5.63672 100.44 5.95801C99.9601 6.2793 99.3953 6.45087 98.8173 6.45092C98.436 6.45721 98.0572 6.38747 97.7031 6.24579C97.3491 6.1041 97.0269 5.89332 96.7555 5.62579C96.4841 5.35826 96.2689 5.03935 96.1226 4.68776C95.9762 4.33616 95.9016 3.95894 95.9031 3.57819ZM98.8173 5.97456C100.116 5.97456 101.141 4.95819 101.141 3.57819C101.141 2.96096 100.896 2.36901 100.459 1.93256C100.021 1.49611 99.4284 1.25092 98.8101 1.25092C98.1917 1.25092 97.5987 1.49611 97.1615 1.93256C96.7243 2.36901 96.4786 2.96096 96.4786 3.57819C96.4786 4.95819 97.5041 5.97456 98.8173 5.97456ZM98.2108 5.23819H97.7117V1.93456H98.9722C99.7535 1.93456 100.142 2.22183 100.142 2.87456C100.142 3.46546 99.7772 3.72365 99.2836 3.78365L100.223 5.23819H99.6625L98.79 3.80546H98.2126L98.2108 5.23819ZM98.8101 3.38183C99.2363 3.38183 99.6151 3.35092 99.6151 2.83637C99.6151 2.42728 99.2508 2.35092 98.8866 2.35092H98.2035V3.38183H98.8101Z" fill="black"/>
</svg>

<svg xmlns="http://www.w3.org/2000/svg" width="103" height="20" fill="none">
  <path fill="#000" d="M1.459 19.122c.658-.326.612-1.455.614-1.593V3.009a1.293 1.293 0 0 0-.507-1.08h11.876s-.51.293-.51 1.09v14.812c0 .207.09.993.614 1.273l-12.087.018Zm28.638 0c-.609-.415-.583-1.286-.587-1.484v-5.562s3.317 5.218 3.627 5.979c.34.834-.046 1.067-.046 1.067h13.661s-.138-.091-.344-.247a5.422 5.422 0 0 1-1.219-1.191c-.484-.648-5.482-8.75-5.482-8.75s3.763-5.24 4.351-6c.308-.382.668-.72 1.07-1.003H33.425s.65.456.077 1.289c-.574.833-3.989 5.553-3.989 5.553V3.01a1.285 1.285 0 0 1 .52-1.08H18.464a1.297 1.297 0 0 1 .505 1.08c.009.556 0 14.243 0 14.52 0 .147.044 1.273-.614 1.593l11.74-.002ZM49.153 1.929a1.296 1.296 0 0 1 .51 1.08v14.52c0 .147.044 1.273-.614 1.593H68.97v-5.84a1.87 1.87 0 0 1-1.35.56h-7.768V12.47h5.6c.338 0 1.274.107 1.515.424V7.65c-.252.35-1.197.433-1.508.433h-5.61V6.71h7.302a2.698 2.698 0 0 1 1.82.77V1.93H49.152Zm38.254 17.193s.524-.587.34-1.298a17.097 17.097 0 0 0-.836-2.102h-5.109s-.641 1.354-.836 2.102c-.182.71.34 1.298.34 1.298H70.975c.404-.374.728-.826.952-1.33.364-.834 5.282-13.94 5.477-14.412.365-.909-.238-1.442-.238-1.442H93.6a1.4 1.4 0 0 0-.271 1.466c.308.927 5.557 13.916 5.794 14.389.249.526.624.983 1.093 1.329H87.407Zm-1.68-6.52s-1.23-3.033-1.275-3.147a3 3 0 0 1-.182-.884h-.018c-.01.301-.065.599-.164.884l-1.275 3.147h2.914Zm10.176-9.024A2.905 2.905 0 0 1 97.677.865a2.92 2.92 0 0 1 3.188.607 2.904 2.904 0 0 1-.425 4.486 2.917 2.917 0 0 1-1.623.493 2.872 2.872 0 0 1-2.694-1.763 2.857 2.857 0 0 1-.22-1.11Zm2.914 2.397c1.299 0 2.324-1.017 2.324-2.397a2.325 2.325 0 0 0-2.33-2.327 2.333 2.333 0 0 0-2.332 2.327c0 1.38 1.025 2.397 2.338 2.397Zm-.606-.737h-.5V1.935h1.261c.782 0 1.17.287 1.17.94 0 .59-.365.849-.858.909l.939 1.454h-.56l-.873-1.433h-.577l-.002 1.433Zm.6-1.856c.425 0 .804-.031.804-.546 0-.409-.364-.485-.728-.485h-.683v1.03h.606Z"/>
</svg>
